packages/core/src/svgs/rif.svg

<svg width="24" height="24" viewBox="0 0 24 24" fill="none" xmlns="http://www.w3.org/2000/svg">
<g clip-path="url(#clip0_31_17249)">
<path d="M0 0H24V24H0V0Z" fill="#149DD9"/>
<path d="M12.4286 5.57136H13.7143V10.2856H12.4286V5.57136ZM14.5715 7.71422H15.8572V11.5714H14.5715V7.71422ZM16.7143 10.2856H18.0001V11.5714H16.7143V10.2856ZM18.4286 10.2856H19.7143V11.5714H18.4286V10.2856ZM18.4286 12.4285V13.7142H13.7143V12.4285H18.4286ZM16.2858 14.5714V15.8571H12.4286V14.5714H16.2858ZM13.7143 16.7142V17.9999H12.4286V16.7142H13.7143ZM13.7143 18.4285V19.7142H12.4286V18.4285H13.7143ZM11.5715 18.4285H10.2858V13.7142H11.5715V18.4285ZM9.42862 16.2856H8.14291V12.4285H9.42862V16.2856ZM7.28577 13.7142H6.00005V12.4285H7.28577V13.7142ZM5.57148 13.7142H4.28577V12.4285H5.57148V13.7142ZM5.57148 11.5714V10.2856H10.2858V11.5714H5.57148ZM7.71434 9.4285V8.14279H11.5715V9.4285H7.71434ZM10.2858 7.28564V5.99993H11.5715V7.28564H10.2858ZM10.2858 5.57136V4.28564H11.5715V5.57136H10.2858Z" fill="white"/>
</g>
<defs>
<clipPath id="clip0_31_17249">
<rect width="24" height="24" fill="white"/>
</clipPath>
</defs>
</svg>

<svg xmlns="http://www.w3.org/2000/svg" width="24" height="24" fill="none" viewBox="0 0 24 24"><g clip-path="url(#a)"><path fill="#149DD9" d="M0 0h24v24H0z"/><path fill="#fff" d="M12.429 5.571h1.285v4.715H12.43zm2.143 2.143h1.285v3.857h-1.285zm2.142 2.572H18v1.285h-1.286zm1.715 0h1.285v1.285H18.43zm0 2.143v1.285h-4.715v-1.286zm-2.143 2.142v1.286h-3.857v-1.286zm-2.572 2.143V18H12.43v-1.286zm0 1.715v1.285H12.43V18.43zm-2.142 0h-1.286v-4.715h1.286zm-2.143-2.143H8.143v-3.858h1.286zm-2.143-2.572H6v-1.286h1.286zm-1.715 0H4.286v-1.286H5.57zm0-2.143v-1.285h4.715v1.285zM7.714 9.43V8.143h3.858v1.285zm2.572-2.143V6h1.286v1.286zm0-1.715V4.286h1.286V5.57z"/></g><defs><clipPath id="a"><path fill="#fff" d="M0 0h24v24H0z"/></clipPath></defs></svg>
